X: 1895
T: Around The World For Sport
R: reel
M: 4/4
K: Eminor
~G3B A2dc|BdAc BEEF|~G3B A2dc|BGAG FDEF|
~G3B A2dc|BdAc BEEF|G2GF GAB^c|dBAG FDDf||
gfef g2ef|geag fddf|gfef gfed|BdAG FDDf|
gfef g2bg|fgag fddf|gbaf gfed|BdAG FDEF||

